assets/book.svg

<svg width="24" height="24" viewBox="0 0 24 24" fill="none" xmlns="http://www.w3.org/2000/svg">
<path d="M22 10.99V4.67001C22 3.47001 21.02 2.58001 19.83 2.68001H19.77C17.67 2.86001 14.48 3.93001 12.7 5.05001L12.53 5.16001C12.24 5.34001 11.76 5.34001 11.47 5.16001L11.22 5.01001C9.44 3.90001 6.26 2.84001 4.16 2.67001C2.97 2.57001 2 3.47001 2 4.66001V16.74C2 17.7 2.78 18.6 3.74 18.72L4.03 18.76C6.2 19.05 9.55 20.15 11.47 21.2L11.51 21.22C11.78 21.37 12.21 21.37 12.47 21.22C14.39 20.16 17.75 19.05 19.93 18.76L20.26 18.72C21.22 18.6 22 17.7 22 16.74V15.02" stroke="#00234E" stroke-width="1.5" stroke-linecap="round" stroke-linejoin="round"/>
<path d="M12 5.49001V20.49" stroke="#00234E" stroke-width="1.5" stroke-linecap="round" stroke-linejoin="round"/>
<path d="M7.75 8.49001H5.5" stroke="#00234E" stroke-width="1.5" stroke-linecap="round" stroke-linejoin="round"/>
<path d="M8.5 11.49H5.5" stroke="#00234E" stroke-width="1.5" stroke-linecap="round" stroke-linejoin="round"/>
</svg>

<svg xmlns="http://www.w3.org/2000/svg" width="24" height="24" fill="none" stroke="#00234e" stroke-width="1.5" stroke-linecap="round" stroke-linejoin="round" xmlns:v="https://vecta.io/nano"><path d="M22 10.99V4.67c0-1.2-.98-2.09-2.17-1.99h-.06c-2.1.18-5.29 1.25-7.07 2.37l-.17.11a1.11 1.11 0 0 1-1.06 0l-.25-.15C9.44 3.9 6.26 2.84 4.16 2.67 2.97 2.57 2 3.47 2 4.66v12.08c0 .96.78 1.86 1.74 1.98l.29.04c2.17.29 5.52 1.39 7.44 2.44l.04.02c.27.15.7.15.96 0 1.92-1.06 5.28-2.17 7.46-2.46l.33-.04c.96-.12 1.74-1.02 1.74-1.98v-1.72"/><path d="M12 5.49v15m-4.25-12H5.5m3 3h-3"/></svg>
